raw/symbols/arkk.svg

<svg width="36" height="36" viewBox="0 0 36 36" fill="none" xmlns="http://www.w3.org/2000/svg">
<rect width="36" height="36" rx="18" fill="#BCBDAA"/>
<path d="M29.0911 17.9999C29.0911 11.8848 24.116 6.90869 17.9999 6.90869C11.8837 6.90869 6.90869 11.8837 6.90869 17.9999C6.90869 24.116 11.8837 29.0911 17.9999 29.0911C24.116 29.0911 29.0911 24.116 29.0911 17.9999ZM17.0569 7.58242L8.7065 22.7944C7.93775 21.3132 7.53697 19.6687 7.53805 17.9999C7.53805 12.5492 11.729 8.06166 17.0569 7.58345V7.58242ZM17.6842 17.8147L9.59121 22.488L17.6842 7.74698V17.8147ZM17.6842 28.4519C15.9557 28.3994 14.267 27.9191 12.7696 27.0542C11.2721 26.1892 10.0124 24.9665 9.1032 23.4955L17.6842 18.5431V28.4519ZM20.4838 12.5673C20.4811 13.4776 20.2865 14.3772 19.9126 15.2071C19.5386 16.0372 18.9937 16.7789 18.3135 17.384V7.74956C18.9986 8.35089 19.5467 9.09205 19.9211 9.9231C20.2954 10.7542 20.4873 11.6558 20.4838 12.5673ZM26.8925 12.4986L19.8767 16.5483C20.6777 15.3749 21.1077 13.988 21.1111 12.5673C21.1146 11.6438 20.9355 10.7288 20.5839 9.87486C20.2323 9.02093 19.7153 8.24499 19.0626 7.59171C20.6557 7.75678 22.1897 8.28495 23.5467 9.13561C24.9037 9.98627 26.0476 11.1368 26.8904 12.4986H26.8925ZM27.2087 22.9559L18.6257 17.9999L27.2087 13.0424C28.0301 14.5654 28.4602 16.2687 28.4602 17.9991C28.4602 19.7295 28.0301 21.4328 27.2087 22.9559ZM26.892 23.4996C25.9824 24.9695 24.723 26.1911 23.226 27.0553C21.729 27.9195 20.0413 28.3993 18.3135 28.4519V18.5441L26.892 23.4996Z" fill="#030303"/>
</svg>

<svg xmlns="http://www.w3.org/2000/svg" width="36" height="36" fill="none"><rect width="36" height="36" fill="#BCBDAA" rx="18"/><path fill="#030303" d="M29.091 18c0-6.115-4.975-11.091-11.091-11.091S6.909 11.884 6.909 17.999c0 6.117 4.975 11.092 11.09 11.092 6.117 0 11.092-4.975 11.092-11.091ZM17.057 7.582l-8.35 15.212A10.393 10.393 0 0 1 7.537 18c0-5.45 4.191-9.938 9.519-10.417Zm.627 10.233-8.093 4.673 8.093-14.741v10.068Zm0 10.637a10.461 10.461 0 0 1-8.58-4.957l8.58-4.952v9.909Zm2.8-15.885a6.473 6.473 0 0 1-2.17 4.817V7.75a6.377 6.377 0 0 1 2.17 4.817Zm6.408-.068-7.015 4.05a7.091 7.091 0 0 0 1.234-3.982 7.002 7.002 0 0 0-2.048-4.975 10.475 10.475 0 0 1 7.827 4.907h.002Zm.317 10.457L18.626 18l8.583-4.958a10.442 10.442 0 0 1 0 9.914Zm-.317.544a10.462 10.462 0 0 1-8.578 4.952v-9.908l8.578 4.956Z"/></svg>
